X: 17937
T: Hovering Hawks
R: reel
M: 4/4
K: Gmajor
|:GA|BedB AGED|G2BG DEGA|BedB AGED|EGcd A2 GA|
BedB AGED|EGBd efge|dBeg dBAG|A6:|
|:Bd|e3g edBA|ABde d2Bd|eged BAGF|E3D EGBd|
e3g edBA|ABde d2 gf|eage dBAG|A6:|

